!!!!SEGMENT: pl-cz--ii-87--001-005_zientarski-romuald-teodor--msza-swieta-et-incarnatus.krn
!!!cenid: 18xx:1166
!!!COM: Zientarski, Romuald Teodor
!!!COM-rismID:
!!!CDT: ~1830-1874
!!!CNT: Polish
!!!OPR: Msza Święta
!!!OTL: Et incarnatus
!!!OMV: 005
!!!PDT: 1888
!!!AGN: Sacred; Mass
!!!SMS-siglum: PL-CZ
!!!SMS-shelfmark: II-87
!!!SMS-shelfwork: 001-005 M
!!!SMS-variant:
!!!SMS-altvar:
!!!NIFC-rismSourceID: 300033224
!!!NIFC-islandoraID: pl-cz:33881
!!!URL-pdf-islandora: https://repozytorium.nifc.pl/islandora/object/pl-cz%3A33881/datastream/PDF/view
!!!URL-scan:
!!!ONB-nifc: UWAGA: części Mszy: Kyrie, Gloria, Graduale, Credo, Et incarnatus, Et resurrexit,
!!!AIN: 1 organ 1 vox
!!!key: E-
**kern	**kern	**kern	**text
*part2	*part2	*part1	*part1
*staff3	*staff2	*staff1	*staff1
*I"[Organo]	*	*I"[Voice]	*
*Iorgan	*	*Ivox	*
*ICklav	*	*ICvox	*
*IGacmp	*	*IGsolo	*
*clefF4	*clefG2	*clefG2	*
*k[b-e-a-]	*k[b-e-a-]	*k[b-e-a-]	*
*E-:	*E-:	*E-:	*
*M4/4	*M4/4	*M4/4	*
*met(c)	*met(c)	*met(c)	*
=1	=1	=1	=1
!	!	!LO:TX:a:t=graci recitatiwe	!
1E- 1EE-	(>2.g 2.e- (<2.B-;/	8b-;\L	I
.	.	16cc\L	.
.	.	16dd\JJ	.
.	.	8ee-\L	Bóg
.	.	8ff\J	.
.	.	(>8.gg\L	stał
.	.	16dd\Jk)	.
.	4a-) 4e- 4c/)	8ee-\	się
.	.	8cc\	czło-
=2	=2	=2	=2
*^	*^	*	*
[>2E- [<2EE-/	2ryy	(>2g 2e- (<2B-/	2ryy	4.b-/	-wie-
.	.	.	.	8g/	.
4E-] 4EE-/]	4ryy	4e-) 4B- 4G/)	4ryy	4e-/	-kiem
*	*Xtuplet	*	*Xtuplet	*	*
!	!LO:N:vis=12	!	!LO:N:vis=12	!	!
8rc;	24E-LL\	8r;	24g 24B-LL/	8r;	.
!	!LO:N:vis=12	!	!LO:N:vis=12	!	!
.	24D\	.	24f 24A-/	.	.
!	!LO:N:vis=12	!	!LO:N:vis=12	!	!
.	24E-JJ\	.	24e- 24G/JJ	.	.
[>8A- [>8F [<8BB-\	8ryy	[<8d/	8ryy	8f/	i
*	*	*v	*v	*	*
*v	*v	*	*	*
=3	=3	=3	=3
1A-N_> 1FN_> 1BB-_<	1d_<	2dd^\	w_ludz-
.	.	4cc\	-kiej
.	.	8r	.
.	.	8cc/	po-
=4	=4	=4	=4
!LO:S:s=1:note:problem=note-level slur	!	!	!
(>4.BB-\]	2d] 2A-<N] 2F<N]/	(>4.cc^\	-sta-
16C\LL	.	8b-\)	.
16D\JJ)	.	.	.
4E-\	4e- 4B-< 4G</	4g/	-ci
4D-X 4DD-X\	4r	4r	.
=5	=5	=5	=5
!	!LO:N:vis=2..	!	!
2.C 2.CC/	[>1g [>1en [<1B-	(<4.g/	Dał
.	.	16f#X/LL	się
.	.	16g/JJ)	.
.	.	4dd-X\	przy-
8DL 8DD/	.	8cc\	-bic
8EnJ 8EEn/	.	8b-\	do
!!LO:LB:g=original
=6	=6	=6	=6
*	*^	*	*
2F 2FF/	2g] 2enX] 2B-/]	2ryy	2b-/	krzy-
8FL 8FF/	2f 2A-/	4.c\	4a-/	-ża
8G 8GG/	.	.	.	.
8F 8FF/	.	.	4r	.
8E-J 8EE-/	.	8c-X\	.	.
*	*v	*v	*	*
=7	=7	=7	=7
2D 2DD/	1f 1B- 1A-	(<4.b-/	za
.	.	16an/LL	.
.	.	16b-/JJ)	.
2BB-/	.	4ee-\	grze-
.	.	8dd\	-chy
.	.	8cc\	spół
=8	=8	=8	=8
[<2EE-\	[>2e- [>2B-< [>2G< [<2E-</	2b-\	bra-
8EE-\]	8e-] 8B-<] 8G<] 8E-</]	4ee-\	-ci
(<8G/L	8g/L	.	.
8En/	8en/	4r	.
8D-X/J)	8d-X/J	.	.
=9	=9	=9	=9
8D-X\	8d-X\	8r	.
8r	8r	8dd-X\	I
[>2.C [<2.CC/	[>2.g [>2.c [<2.B-/	4.cc^\	czo-
.	.	8g/	-ło
.	.	8f#X/	mu
.	.	8g/	zra-
=10	=10	=10	=10
*	*^	*	*
!LO:N:vis=4	!	!	!	!
4.C] (<4.CC/]	(>2g] 2c] (<2B-/]	2rAyy	2b-\	-ni-
16DLL 16DD/	.	.	.	.
!LO:SIC:v:s=16EnJJ 16EEn/)	!	!	!	!
16E-JJ 16EE-/)	.	.	.	.
!	!	!LO:S:s=1:note:problem=note-level slur	!	!
4F (<4FF/	2f) 2A-/)	(>4c\	4a-/	-li
4E-X 4EE-X/)	.	4c#X\)	4r	.
*	*v	*v	*	*
=11	=11	=11	=11
2D 2DD/	2f 2d 2A-/	8cc-X\	i
.	.	8cc-\	prze-
.	.	2b-\	-bo-
2BB-/	2d/	.	.
.	.	4f/	-dli
!!LO:LB:g=original
=12	=12	=12	=12
!LO:SIC:v:n=2:s=2EE-\	!	!	!
2E- 2FF\	2e- 2B-< 2G-<X/	(<4.a-/	ser-
.	.	8g/)	.
2r	8r	4e-/	-ce
.	(<8d/L	.	.
.	8e-/	4r	.
.	8f/J)	.	.
=13	=13	=13	=13
*	*tremolo	*	*
4r	(<32g-X/LLL	8r	.
.	32e-/	.	.
.	32g-/	.	.
.	32e-/	.	.
!	!	!LO:TX:a:t=morendo.	!
.	32g-/	8g-X/	I
.	32e-/	.	.
.	32g-/	.	.
.	32e-/	.	.
!LO:N:vis=2	!	!	!
4.c-X 4.C-X\	32g-/	2g-/	sko-
.	32e-/	.	.
.	32g-/	.	.
.	32e-/	.	.
.	32g-/	.	.
.	32e-/	.	.
.	32g-/	.	.
.	32e-/JJJ)	.	.
.	(<32g-/LLL	.	.
.	32e-/	.	.
.	32g-/	.	.
.	32e-/	.	.
8r	32g-/	.	.
.	32e-/	.	.
.	32g-/	.	.
.	32e-/	.	.
4B- 4BB-\	32g-/	4g-/	-nał
.	32e-/	.	.
.	32g-/	.	.
.	32e-/	.	.
.	32g-/	.	.
.	32e-/	.	.
.	32g-/	.	.
.	32e-/JJJ)	.	.
=14	=14	=14	=14
*^	*^	*	*
2An 2AAn\	2ryy	(<32g-/LLL	2ryy	8g-X/	bło-
.	.	32e-/	.	.	.
.	.	32g-/	.	.	.
.	.	32e-/	.	.	.
.	.	32g-/	.	8g-/	-go-
.	.	32e-/	.	.	.
.	.	32g-/	.	.	.
.	.	32e-/	.	.	.
!	!	!	!	!LO:N:vis=2	!
.	.	32g-/	.	4ee-;\	-sła-
.	.	32e-/	.	.	.
.	.	32g-/	.	.	.
.	.	32e-/	.	.	.
.	.	32g-/	.	.	.
.	.	32e-/	.	.	.
.	.	32g-/	.	.	.
.	.	32e-/JJJ)	.	.	.
*	*	*Xtremolo	*	*	*
8r	8ryy	8r	8ryy	4e-/	-iąc
!LO:TX:a:t=P:problem=slur above/below	!	!	!	!	!
(8E-/L	4.AAn\	(<8g-/L	4.c\	.	.
8F/	.	8f/	.	8r	.
8G-X/J	.	8e-/J)	.	8ee-\	swe
*v	*v	*	*	*	*
*	*v	*v	*	*
=15	=15	=15	=15
*	*	*^	*
(>1B- [<1BB-)	2g-X 2e-/	(>8gg-X\L	1g-X	sle-
.	.	8ee-\	.	.
!	!	!LO:TX:a:t=rall.	!	!
.	.	8b-\	.	.
.	.	8g-\J)	.	.
.	4f/	4f/	.	-pe
.	4e-/	4e-/	.	mor-
*	*	*v	*v	*
=16	=16	=16	=16
*	*^	*	*
2F 2BB-\])	4b- 4B-/	1d	2b-\	-der-
.	2b- 2B-/	.	.	.
2r	.	.	4b-\	-ce.
.	[>4b- [<4B-/	.	4r	.
*	*v	*v	*	*
=17	=17	=17	=17
1r	4b-] 4B-/]	1r	.
.	2b- 2B-/	.	.
.	4b- 4B-/	.	.
==	==	==	==
*-	*-	*-	*-
!!!system-decoration: <s1>(s2,s3)
!!!RDF**kern: > = above
!!!RDF**kern: < = below
!!!RDF**kern: N = linked
!!!ENC: Marcin Jachim
!!!END: 2020-11-06
!!!ENC: Andrzej Kubiczek
!!!END: 2021-11-14
